modules/hawcons-stroke/icons/icon-33-clipboard-add.svg

<?xml version="1.0" encoding="UTF-8" standalone="no"?>
<svg width="32px" height="32px" viewBox="0 0 32 32" version="1.1" xmlns="http://www.w3.org/2000/svg" xmlns:xlink="http://www.w3.org/1999/xlink" xmlns:sketch="http://www.bohemiancoding.com/sketch/ns">
    <!-- Generator: Sketch 3.0.3 (7891) - http://www.bohemiancoding.com/sketch -->
    <title>icon 33 clipboard add</title>
    <desc>Created with Sketch.</desc>
    <defs></defs>
    <g id="Page-1" stroke="none" stroke-width="1" fill="none" fill-rule="evenodd" sketch:type="MSPage">
        <g id="icon-33-clipboard-add" sketch:type="MSArtboardGroup" fill="#929292">
            <path d="M21,26 L21,23 L22,23 L22,26 L25,26 L25,27 L22,27 L22,30 L21,30 L21,27 L18,27 L18,26 L21,26 L21,26 Z M17.257162,30 L6.99742191,30 C5.89092539,30 5,29.10296 5,27.9964051 L5,7.00359486 C5,5.88976324 5.89427625,5 6.99742191,5 L8.00000577,5 C8.00262776,3.89128252 8.89828672,3 10.0027601,3 L11.0000005,3 L11.0000005,3 C11.0008998,1.33812603 12.3478441,0 14.0092545,0 L14.9907455,0 C16.6497738,0 17.9990959,1.34299141 17.9999995,3 L18.9972399,3 C20.1048269,3 20.9973726,3.89497907 20.9999942,5 L20.9999942,5 L22.0025781,5 C23.1090746,5 24,5.89703997 24,7.00359486 L24,21.5997095 C25.780838,22.510065 27,24.3626571 27,26.5 C27,29.5375663 24.5375663,32 21.5,32 C19.7920629,32 18.2659536,31.2215034 17.257162,30 L17.257162,30 L17.257162,30 Z M23,21.2070325 L23,7.00307055 C23,6.44908998 22.5452911,6 22.0000398,6 L20.9999942,6 L20.9999942,6 C20.9973722,7.10871748 20.1017133,8 18.9972399,8 L10.0027601,8 C8.89517314,8 8.00262739,7.10502093 8.00000579,6 L6.9999602,6 C6.44769743,6 6,6.43891776 6,7.00307055 L6,27.9969294 C6,28.55091 6.45470893,29 6.9999602,29 L16.5997095,29 C16.2162786,28.2499322 16,27.4002234 16,26.5 C16,23.4624337 18.4624337,21 21.5,21 C22.0200119,21 22.5231682,21.0721672 23,21.2070325 L23,21.2070325 L23,21.2070325 Z M12,4 L12,2.99791312 C12,1.89826062 12.897616,1 14.0048815,1 L14.9951185,1 C16.1061002,1 17,1.89449617 17,2.99791312 L17,4 L19.0044225,4 C19.555163,4 20,4.44724809 20,4.99895656 L20,6.00104344 C20,6.55733967 19.5542648,7 19.0044225,7 L9.9955775,7 C9.44483697,7 9,6.55275191 9,6.00104344 L9,4.99895656 C9,4.44266033 9.44573523,4 9.9955775,4 L12,4 L12,4 Z M14.5,4 C14.7761424,4 15,3.77614239 15,3.5 C15,3.22385761 14.7761424,3 14.5,3 C14.2238576,3 14,3.22385761 14,3.5 C14,3.77614239 14.2238576,4 14.5,4 L14.5,4 Z M21.5,31 C23.9852815,31 26,28.9852815 26,26.5 C26,24.0147185 23.9852815,22 21.5,22 C19.0147185,22 17,24.0147185 17,26.5 C17,28.9852815 19.0147185,31 21.5,31 L21.5,31 Z" id="clipboard-add" sketch:type="MSShapeGroup"></path>
        </g>
    </g>
</svg>

<svg width="32" height="32" xmlns="http://www.w3.org/2000/svg"><path d="M21 26v-3h1v3h3v1h-3v3h-1v-3h-3v-1h3zm-3.743 4H6.997A1.998 1.998 0 0 1 5 27.996V7.004C5 5.89 5.894 5 6.997 5H8c.003-1.109.898-2 2.003-2H11c0-1.662 1.348-3 3.01-3h.98A3.007 3.007 0 0 1 18 3h.997c1.108 0 2 .895 2.003 2h1.003C23.109 5 24 5.897 24 7.004V21.6a5.5 5.5 0 1 1-6.743 8.4zM23 21.207V7.003C23 6.45 22.545 6 22 6h-1a2.001 2.001 0 0 1-2.003 2h-8.994c-1.108 0-2-.895-2.003-2H7c-.552 0-1 .439-1 1.003v20.994C6 28.55 6.455 29 7 29h9.6a5.5 5.5 0 0 1 6.4-7.793zM12 4V2.998C12 1.898 12.898 1 14.005 1h.99C16.106 1 17 1.894 17 2.998V4h2.004c.551 0 .996.447.996.999v1.002a.994.994 0 0 1-.996.999H9.996A.997.997 0 0 1 9 6.001V4.999C9 4.443 9.446 4 9.996 4H12zm2.5 0a.5.5 0 1 0 0-1 .5.5 0 0 0 0 1zm7 27a4.5 4.5 0 1 0 0-9 4.5 4.5 0 0 0 0 9z" fill="#929292" fill-rule="evenodd"/></svg>
